!!! OTL: Berkowitz436
!!! Chapter: 1
!!! Section: IV
!!! Page: 109
!!! Mode: 
!!! Encoder: DJB
**kern
*staff1
*I"Piano
=1-
*clefF4
*k[b-]
*d:
*M2/4
4r
8r
8AA/
=2
8D\L
8F\J
8B-\L
8G#\J
=3
8A\L
8E\J
8A\L
8F#\J
=4
8G\L
8D\J
8G\L
8E\J
=5
4F\
4A\
=6
8D\L
8F\J
8B-\L
8G#\J
=7
8A\L
8d\J
8c#\L
8G\J
=8
8F#\L
8c\J
8B-\L
8Fn\J
=9
8E\L
[8B-\J
16B-\LL]
16A\
16G\
16F\JJ
=10
8E\L
8D\J
8GG#/L
8AA/J
=11
!!linebreak:original
4.F\
8C#/
=12
4E\
8D\
8r
==
*-
